X: 17
M: 3/4
L: 1/16
P: AA BB ad lib.
Q: 1/4=96
K: Gm
V: 1
"A"|:\
^F2 A4 B4 cd | e2d2 e2c2 d4 |\
^F2 B4 cd edcB | A6 G2 G4 :|\
"B"|:\
d2B2 F2B2 d2B2 | c2f2 c2A2 c2F2 |
b2 g4 d2 c2d2 | B6 A2 G4 :|
V: 2
|: B,4 B,4 A,4 | G,4 A,4 B,2C2 | D4 ^F4 G4 | G4 G2A2 ^F2D2 |
   B,4 B,4 A,4 | G,4 A,4 B,2C2 | D4 G4 G4 | G4 ^F4 G2D2 :|
|:=F2D2 B,2D2 F4 | F2C2 A,2C2 F4 | D2B,2 G,2D2 E4 | D2A,2 D2=E2 D2C2 |
   B,2D2 F4 B2A2 | G4 c2B2 A2^F2 | G2B2 G4 A2B2 | B2D2 ^E2^F2 G4 :|
V: 3 clef=bass middle=d
|: "Gm"g8 "D"^f4 | "Gm"g4 "Dm"=f4 "Eb"e4 | "D"d8 "Gm"B4 | "Cm"c4 "Adim"A4 "D"d2^f2 |
   "Gm"g8 "D"^f4 | "Gm"g4 "Dm"=f4 "Eb"e4 | "D"d4- "Gm"d4 "Cm"c4 | "D"d4 D4 "Gm"G4 :|
|: "Bb"B8 b4 | "F"a8 a4 | "Gm"g8 "Cm"c4 | "D"d8 ^f4 |
   "Gm"g4 "F"a4 "Bb"b4 | "C"c'4 "Am"a4 "D"d'4 | "Gm"g4 b4 "Cm"c'4 | "Gm"d'4 "D"d4 "Gm"g4 :|


